!!!COM: Bach, Johann Sebastian
!!!OPR: Joh. Seb. Bachs vierstimmige Choralgesänge
!!!XEN: Four-part Chorales
!!!OTL: Chorale 44. Die Sonn' hat sich mit ihrem Glanz
!!!SCT: BWV 297
!!!SCA: Thematisch-systematisches Verzeichnis der musikalischen Werke Johann Sebastian Bach: Bach-Werke-Verzeichnis (Schmieder)
!!!YOR: Bach Gesellschaft Edition xxxix
!!!ENC: Steven Rasmussen
!!!CDT: 1685/3//-1750/7/28/
!!!OCY: Deutschland
!!!YEC: Copyright (c) 1994, 2000 Center for Computer Assisted Research in the Humanities
!!!YEM: Rights to all derivative editions reserved
!!!YEN: United States of America
**kern	**kern	**kern	**kern	**silbe
*I"[BASSO]	*I"[TENORE]	*I"[ALTO]	*I"[SOPRANO]	*I"[SOPRANO]
*clefF4	*clefGv2	*clefG2	*clefG2	*
*k[]	*k[]	*k[]	*k[]	*
*a:	*a:	*a:	*a:	*
*M4/4	*M4/4	*M4/4	*M4/4	*
4D	4F	4A	4d	Die
=1	=1	=1	=1	=1
4D	4A	4d	4f	Sonn'
4GG	4B-	8dL	4g	hat
.	.	8eJ	.	.
4DD;	4d;	4f;	4a;	sich
4D	4f	4a	4dd	mit
=2	=2	=2	=2	=2
4A	4e	4a	4.cc	ih-
4E	8.eL	4g#	.	.
.	.	.	8b	-rem
.	16dJk	.	.	.
4F	8cL	8aL	8aL	Glanz
.	8dJ	8g#J	8bJ	.
8CL	8eL	4a	4cc	ge-
8DJ	8fJ	.	.	.
=3	=3	=3	=3	=3
4E	8B	8aL	2b	-wen-
.	4e	16g#L	.	.
.	.	16f#JJ	.	.
4EE	.	4g#	.	.
.	8d	.	.	.
4AA;	4c#;	4e;	4a;	-det
4F	4d	4a	4dd	und,
=4	=4	=4	=4	=4
4B-	8dL	8aL	4dd	was
.	8eJ	8gJ	.	.
8AL	4f	4b	4dd	sie
8G#J	.	.	.	.
4A;	4e;	4a;	4cc#;	soll,
4C#	4A	8aL	4ee	auf
.	.	8gJ	.	.
=5	=5	=5	=5	=5
8DL	4A	4f	4dd	die-
8EJ	.	.	.	.
4F	4d	4f	4a	-sen
8FL	8dL	4g	4b-	Tag
8EJ	8cJ	.	.	.
4F	4c	4f	8aL	voll-
.	.	.	8gJ	.
=6	=6	=6	=6	=6
4BB-	8dL	8fL	2g	-en-
.	8B-	16eL	.	.
.	.	16dJJ	.	.
4C	8G	4e	.	.
.	16cL	.	.	.
.	16B-JJ	.	.	.
4FF;	4A;	4c;	4f;	-det;
4BB-	4B-	4d	4f	die
=7	=7	=7	=7	=7
4GG	4B-	4d	4e	dun-
4AA	8AL	4c#	4e	-kle
.	8GJ	.	.	.
4DD;	4F;	4A;	4d;	Nacht
4D	4d	4f	4a	dringt
=8	=8	=8	=8	=8
8AAL	4c	8fL	4cc	al-
8GGJ	.	8eJ	.	.
8AAL	4c	4f	4cc	-len-
8BB-J	.	.	.	.
4C	8cL	4e	8gL	-hal-
.	8AJ	.	8aJ	.
8DL	8dL	8fL	4b-	-ben
8EJ	8cJ	8gJ	.	.
=9	=9	=9	=9	=9
4F;	4c;	4f;	4a;	zu,
4D	4d	4f	4a	bringt
4AA	4c	4f	4cc	Men-
4BB-	8cL	4f	4dd	-schen,
.	8B-J	.	.	.
=10	=10	=10	=10	=10
4FF;	4c;	4f;	4a;	Vieh
4EE	4c	4g	4cc	und
4FF	4c	8gL	4a	al-
.	.	16fL	.	.
.	.	16eJJ	.	.
4BB-	4B-	4d	8gL	-le
.	.	.	8fJ	.
=11	=11	=11	=11	=11
4GG	8B-L	4d	4.e	Welt
.	8GJ	.	.	.
4AA	8EL	4c#	.	.
.	16AL	.	8d	zur
.	16GJJ	.	.	.
2DD;	2F#;	2A;	2d;	Ruh'.
==|!	==|!	==|!	==|!	==|!
*-	*-	*-	*-	*-
!!!RWG: Key is interpreted using the Humdrum key tool.
!!!URL-pdf: https://s9.imslp.org/files/imglnks/usimg/6/6b/IMSLP24489-PMLP09471-CCARH_Bach_Chorales.pdf#page=30 Musedata edition
!!!URL-pdf: https://s9.imslp.org/files/imglnks/usimg/7/7a/IMSLP04155-Bach_-_BGA_253-438.pdf#page=24 	Bach-Gesellschaft Ausgabe, Band 39 (pp.175-276) Leipzig: Breitkopf und Härtel, 1892. Plate B.W. XXXIX.
!!!END: 1994/05/17
!!!EMD: Converted from MuseData to Humdrum Dec 19, 2000, by Andreas Kornstaedt using muse2kern.
!!!EED: Craig Stuart Sapp
!!!EEV: 2024/03/31
!!!filter-keyboard: extract -i kern | satb2gs
!!!title: @{OTL} (@{SCT})
